X:28
T:MUSIC MAKARS/Temperance Reel # 3
M:4/4
S:NOV. 2002 - R.S. PDF FILE
R:Reel
K:G
(3DEF |\
"G" G2{A}GF GABc | dBge dBAc | "Em" BEED EFGA |      BGAF "D7" GFED |!
"G" G2GF    GABc | dBge dBAc | "Em" BEED EFGA | "D7" BGAF "G"  G2  :|!
|: B2 |\
"Em" Beed e3f | geaf gfed | "D" Bdde d3e  |      fdaf     gefd |!
"Em" Beed e3f | geaf gfed |     BEED EFGA | "D7" BGAF "G" G2  :|
